img/socials/dribble.svg

<svg width="20" height="20" viewBox="0 0 20 20" fill="none" xmlns="http://www.w3.org/2000/svg">
<path fill-rule="evenodd" clip-rule="evenodd" d="M19.0667 9.98745C19.0667 10.6006 19.0043 11.2129 18.8816 11.8098C18.7621 12.3925 18.585 12.9645 18.353 13.5114C18.1264 14.0486 17.8452 14.5662 17.5167 15.049C17.1931 15.5287 16.8203 15.9787 16.4108 16.389C16.0004 16.7974 15.5488 17.1692 15.0693 17.4942C14.585 17.8204 14.0666 18.1012 13.5291 18.3289C12.9814 18.5596 12.408 18.7365 11.8258 18.8558C11.2282 18.9788 10.6137 19.0415 9.99961 19.0415C9.3851 19.0415 8.77059 18.9788 8.17379 18.8558C7.59073 18.7365 7.01739 18.5596 6.47016 18.3289C5.9327 18.1012 5.4138 17.8204 4.92946 17.4942C4.44998 17.1693 3.9984 16.7974 3.58887 16.389C3.17891 15.9787 2.80611 15.5287 2.48204 15.049C2.1553 14.5662 1.87371 14.0485 1.64616 13.5114C1.41414 12.9645 1.23663 12.3924 1.11664 11.8098C0.995347 11.2129 0.93335 10.6006 0.93335 9.98745C0.93335 9.37383 0.995311 8.76021 1.11668 8.16466C1.23666 7.58197 1.41417 7.00903 1.64619 6.46306C1.87374 5.92549 2.15534 5.40737 2.48207 4.92458C2.80615 4.44448 3.17895 3.99529 3.58891 3.58458C3.99844 3.17606 4.45002 2.80518 4.92949 2.48069C5.41383 2.15308 5.93274 1.87239 6.4702 1.64424C7.01742 1.41298 7.59073 1.23573 8.17383 1.11727C8.77063 0.995257 9.38514 0.93335 9.99964 0.93335C10.6137 0.93335 11.2282 0.995257 11.8259 1.11727C12.4081 1.23577 12.9814 1.41302 13.5291 1.64424C14.0666 1.87235 14.585 2.15308 15.0693 2.48069C15.5488 2.80518 16.0004 3.17606 16.4108 3.58458C16.8203 3.99529 17.1931 4.44448 17.5168 4.92458C17.8452 5.40737 18.1264 5.92552 18.353 6.46306C18.585 7.00903 18.7621 7.58197 18.8816 8.16466C19.0043 8.76021 19.0667 9.37383 19.0667 9.98745ZM6.69591 2.99394C4.53669 4.01211 2.92515 5.99886 2.42264 8.39324C2.62677 8.39502 5.85339 8.4357 9.57099 7.44935C8.23086 5.07177 6.79907 3.13147 6.69591 2.99394ZM10.2125 8.63996C6.22573 9.8318 2.40007 9.74604 2.26283 9.74076C2.2606 9.82386 2.25662 9.9043 2.25662 9.98744C2.25662 11.9737 3.00705 13.7845 4.2405 15.1537C4.23784 15.1497 6.35678 11.3959 10.5353 10.0467C10.6362 10.0131 10.7389 9.98301 10.8407 9.95385C10.6464 9.51443 10.4343 9.07409 10.2125 8.63996ZM15.1131 4.18451C13.7499 2.9842 11.96 2.25612 9.99958 2.25612C9.37045 2.25612 8.75992 2.33217 8.17508 2.47275C8.29106 2.62838 9.74545 4.555 11.0696 6.98295C13.9913 5.88923 15.0941 4.21279 15.1131 4.18451ZM11.3685 11.235C11.3513 11.2407 11.334 11.2457 11.3172 11.2518C6.74872 12.8422 5.25683 16.0471 5.24069 16.0821C6.55518 17.1029 8.20391 17.7188 9.99963 17.7188C11.0719 17.7188 12.0933 17.5008 13.0226 17.106C12.9079 16.4305 12.4581 14.0627 11.3685 11.235ZM14.3264 16.3996C16.065 15.228 17.2997 13.3677 17.6442 11.2129C17.4848 11.1616 15.3185 10.4768 12.8193 10.8769C13.8349 13.6639 14.2476 15.9336 14.3264 16.3996ZM11.6656 8.13506C11.8453 8.50378 12.0194 8.87905 12.1801 9.2562C12.2372 9.3915 12.293 9.52414 12.3474 9.65674C15.0073 9.3225 17.6279 9.88485 17.7399 9.90781C17.7222 8.07492 17.0656 6.39274 15.9792 5.07578C15.9646 5.09651 14.7227 6.88833 11.6656 8.13506Z" fill="white"/>
</svg>

<svg width="20" height="20" fill="none" xmlns="http://www.w3.org/2000/svg"><path fill-rule="evenodd" clip-rule="evenodd" d="M19.067 9.987a9.063 9.063 0 0 1-.714 3.524 9.133 9.133 0 0 1-3.284 3.983 9.159 9.159 0 0 1-1.54.835 9.108 9.108 0 0 1-7.059 0 9.167 9.167 0 0 1-1.54-.835 9.14 9.14 0 0 1-3.283-3.983 9.026 9.026 0 0 1-.53-5.346 9.002 9.002 0 0 1 1.365-3.24A9.14 9.14 0 0 1 4.93 2.48a8.978 8.978 0 0 1 3.244-1.363 9.136 9.136 0 0 1 5.356.526 9.097 9.097 0 0 1 3.988 3.28 8.966 8.966 0 0 1 1.365 3.24c.122.596.185 1.21.185 1.823ZM6.696 2.994a7.744 7.744 0 0 0-4.273 5.4c.204.001 3.43.042 7.148-.945a46.557 46.557 0 0 0-2.875-4.455Zm3.517 5.646C6.226 9.832 2.4 9.746 2.263 9.74c-.002.084-.006.164-.006.247 0 1.987.75 3.797 1.983 5.167-.002-.004 2.117-3.758 6.295-5.107.101-.034.204-.064.306-.093a26.1 26.1 0 0 0-.628-1.314Zm4.9-4.455A7.712 7.712 0 0 0 10 2.256c-.63 0-1.24.076-1.825.217.116.155 1.57 2.082 2.895 4.51 2.921-1.094 4.024-2.77 4.043-2.798Zm-3.745 7.05c-.017.006-.034.01-.05.017-4.57 1.59-6.061 4.795-6.077 4.83A7.733 7.733 0 0 0 10 17.72a7.712 7.712 0 0 0 3.023-.613c-.115-.676-.565-3.043-1.655-5.871Zm2.958 5.165a7.734 7.734 0 0 0 3.318-5.187c-.16-.051-2.325-.736-4.825-.336 1.016 2.787 1.429 5.057 1.507 5.523Zm-2.66-8.265a24.408 24.408 0 0 1 .681 1.522c2.66-.335 5.28.228 5.393.25a7.686 7.686 0 0 0-1.76-4.831c-.015.02-1.257 1.812-4.314 3.06Z" fill="#fff"/></svg>
